X:1
T:The Cavan Reel
R:reel
D:Snug in the Blanket,P.O'Brien,J.Gans,D.Sproule
S:Belfast tin whistle player Johnny Maguire (father of Sean)
Z:Paul Stewart Cranford (P.S.C.), <http://www.cranfordpub.com>
L:1/8
M:C|
Q:333
K:Eaeo
EBBA FBAF|EBBA (F/G/A) FD|EBBA FEFA|[1BedA FEED:|[2BedA FEE||
|:A|Beeg fded|BAdA FDFA|(B/c/d) eg fded|[1BAdA FEE:|[2BAdA FBAF|]
